X:27
T:Elvira
C:Rodney Miller
S:Bernie Waugh
R:Reel
M:4/4
L:1/8
K:G
|:\
"G"Bd2d dedB|"D"BA^EF d4|"Em"GFGA~B2AG|"Bm"FEFG ABAG|
"C"EG2GG2FE|"G"~D2^A,B,G4|"Am"A^GAB- "Bm"BBAB|1"C"c2~c2"D7"ABc^c:|2\
"C"cBce"D7"d4||
|:\
"C"cBAGE2AB|"Cm"cBAG_E4|"G"D2B2ADEG|DBGB- BGAB|
"C"cBAG E3c-|"Cm"cBAG_E4|"C"CEGC EGDF|1"D"(3AAF FA"G"G4:|2\
"D"ADFG- "G"G4|]

